assets/images/ico_wa.svg

<svg width="79" height="46" viewBox="0 0 79 46" fill="none" xmlns="http://www.w3.org/2000/svg">
<path fill-rule="evenodd" clip-rule="evenodd" d="M64.4366 2.78694e-06L14.1805 0.0594042C12.0049 0.0618744 10.2129 1.8306 10.2129 3.9808V34.6929C10.2129 34.8649 10.2473 35.0351 10.3141 35.194C10.3809 35.3529 10.4788 35.4974 10.6021 35.6189C10.7255 35.7403 10.8719 35.8363 11.0329 35.9017C11.194 35.9671 11.3665 36.0006 11.5406 36L67.0816 35.9406C67.4324 35.9406 67.7687 35.8028 68.0168 35.5576C68.2648 35.3125 68.4041 34.9801 68.4042 34.6335V3.9214C68.4042 1.7712 66.6122 -0.00256615 64.4366 2.78694e-06Z" fill="black"/>
<path fill-rule="evenodd" clip-rule="evenodd" d="M57.5351 45.7565H72.7698C75.9764 45.7565 78.5758 43.1657 78.5758 39.9697C71.5659 39.9668 64.5479 39.9681 57.5351 39.9681H42.2812H0.179688C0.179658 43.1647 2.77961 45.7562 5.98679 45.7562H42.2812L57.5351 45.7565Z" fill="black"/>
<rect x="17.2363" y="7" width="45.1484" height="22" fill="white"/>
</svg>

<svg width="79" height="46" fill="none" xmlns="http://www.w3.org/2000/svg"><path fill-rule="evenodd" clip-rule="evenodd" d="M64.437 0L14.18.06c-2.176.002-3.968 1.77-3.968 3.92v30.713a1.293 1.293 0 00.39.926 1.325 1.325 0 00.938.381l55.54-.06c.351 0 .688-.137.936-.382a1.3 1.3 0 00.387-.925V3.921c0-2.15-1.792-3.924-3.967-3.921zm-6.902 45.757H72.77c3.206 0 5.806-2.591 5.806-5.787-7.01-.003-14.028-.002-21.04-.002H.18c0 3.197 2.6 5.788 5.807 5.788h51.548z" fill="#000"/><path fill="#fff" d="M17.236 7h45.148v22H17.236z"/></svg>
